X: 1
T:Little Stack of Wheat, The
T:Stack of Wheat, The
S:Ir-Trad, David A de la Barre, 4/98
N:Martin O'Connor via Clannad
M:4/4
L:1/8
K:G
BA | GEDE GABG | (3ABA GA Bdef | gedB GAAG | dBAG E2 BA |
GEDE GABG | (3ABA GA Bdef | gedB GAAG | AGEF G2 :|
Bd | edBd edgd | edBd e2 (3def | gedB GAAG | dBAG E2 Bd |
edBd edgd | edBd e2 (3def | gedB GAAG | AGEF G2 :|**
